**kern	**kern	**text	**kern	**text	**kern	**text	**kern	**text	**kern	**text
*part6	*part5	*part5	*part4	*part4	*part3	*part3	*part2	*part2	*part1	*part1
*staff6	*staff5	*staff5	*staff4	*staff4	*staff3	*staff3	*staff2	*staff2	*staff1	*staff1
*clefF4	*clefF4	*	*clefGv2	*	*clefG2	*	*clefG2	*	*clefG2	*
*oclefF4	*oclefF4	*	*oclefC4	*	*oclefC3	*	*oclefC1	*	*oclefC1	*
*k[]	*k[]	*	*k[]	*	*k[]	*	*k[]	*	*k[]	*
*I"Violone	*I"Basso	*	*I"Tenore	*	*I"Alto	*	*I"Canto II	*	*I"Canto I	*
*I'Vne	*I'B	*	*I'T	*	*I'A	*	*I'C II	*	*I'C I	*
=	=	=	=	=	=	=	=	=	=	=
G	G	Man-	G	Man-	.	.	.	.	.	.
G	G	-da-	G	-da-	.	.	.	.	.	.
A	A	-tum	A	-tum	.	.	.	.	.	.
c	c	no-	c	no-	.	.	.	.	.	.
B	B	-vum	B	-vum	.	.	.	.	.	.
A	A	do	A	do	.	.	.	.	.	.
c	c	vo-	c	vo-	.	.	.	.	.	.
c	c	-bis	c	-bis	.	.	.	.	.	.
=||	=||	=||	=||	=||	=||	=||	=||	=||	=||	=||
*M2/2	*M2/2	*	*M2/2	*	*M2/2	*	*M2/2	*	*M2/2	*
1E	1E	Ut	[1G	Ut	1e	Ut	1b	Ut	2b	Ut
.	.	.	.	.	.	.	.	.	[2ee	di-
=	=	=	=	=	=	=	=	=	=	=
[1C	[1C	di-	1G]	.	1g	di-	[1cc	di-	2ee]	.
.	.	.	.	.	.	.	.	.	2ee	-li-
=	=	=	=	=	=	=	=	=	=	=
2C]	2C]	.	1A	di-	2e	-li-	2cc]	.	4ee	-ga-
.	.	.	.	.	.	.	.	.	4dd	.
2AA	2AA	-li-	.	.	[2a	-ga-	2cc	-li-	4cc	.
.	.	.	.	.	.	.	.	.	4b	.
=	=	=	=	=	=	=	=	=	=	=
[1F	[1F	-ga-	1A	-li-	4a]	.	1cc	-ga-	[1a	.
.	.	.	.	.	4g	.	.	.	.	.
.	.	.	.	.	4f	.	.	.	.	.
.	.	.	.	.	4e	.	.	.	.	.
=	=	=	=	=	=	=	=	=	=	=
2F]	2F]	.	[1A	-ga-	2a	.	2dd	.	1a]	.
2E	2E	.	.	.	2g	.	2ee	.	.	.
=	=	=	=	=	=	=	=	=	=	=
[1D	[1D	.	1A]	.	2f	.	2a	-tis	[1a	.
.	.	.	.	.	4d	.	[2ff	in-	.	.
.	.	.	.	.	4e	.	.	.	.	.
=	=	=	=	=	=	=	=	=	=	=
2D]	2D]	.	[1B	-tis	2f	.	2ff]	.	2a]	.
2C	2C	.	.	.	2g	.	2ee	.	2e	-tis
=	=	=	=	=	=	=	=	=	=	=
2D	2D	.	1B]	.	1d	-tis	1dd	.	2f#	in-
2BB	2BB	-tis	.	.	.	.	.	.	[2g	.
=	=	=	=	=	=	=	=	=	=	=
2C	2C	in-	1A	in-	2e	in-	2cc	.	2g]	.
2D	2D	-vi-	.	.	2d	-vi-	2a	-vi-	2f#	-vi-
=	=	=	=	=	=	=	=	=	=	=
1GG	1GG	-cem	1G	-vi-	[1d	-cem	1b	-cem	2g	-cem
.	.	.	.	.	.	.	.	.	2dd	Si-
=	=	=	=	=	=	=	=	=	=	=
2r	2r	.	1G	-cem	1d]	.	2r	.	2b	-cut
2G	2G	si-	.	.	.	.	2b	Si-	[2g	di-
=	=	=	=	=	=	=	=	=	=	=
2E	2E	-cut	1c	si-	1r	.	2g	-cut	2g]	.
2C	2C	di-	.	.	.	.	2e	di-	[2cc	-le-
=	=	=	=	=	=	=	=	=	=	=
2.F	2.F	-le-	1c	-cut	1r	.	1a	-le-	4cc]	.
.	.	.	.	.	.	.	.	.	4b	.
.	.	.	.	.	.	.	.	.	4a	.
4E	4E	.	.	.	.	.	.	.	4g	.
=	=	=	=	=	=	=	=	=	=	=
2D	2D	.	1B	di-	2r	.	1d	-xi	2f	.
2E	2E	.	.	.	2g	Si-	.	.	2g	.
=	=	=	=	=	=	=	=	=	=	=
2.F	2.F	.	1A	-le-	2f	-cut	1c	Vos	2.a	.
.	.	.	.	.	2d	di-	.	.	.	.
8EL	8EL	.	.	.	.	.	.	.	8gL	.
8DJ	8DJ	.	.	.	.	.	.	.	8fJ	.
=	=	=	=	=	=	=	=	=	=	=
2C	4C	.	1c	.	2e	-le-	1r	.	2e	.
.	4BB	.	.	.	.	.	.	.	.	.
2AA	2AA	.	.	.	4d	.	.	.	[2a	.
.	.	.	.	.	4c	.	.	.	.	.
=	=	=	=	=	=	=	=	=	=	=
2.BB	2.BB	.	1B	.	[1d	.	1r	.	4a]	.
.	.	.	.	.	.	.	.	.	4g	.
.	.	.	.	.	.	.	.	.	[2g	.
4C	4C	.	.	.	.	.	.	.	.	.
=	=	=	=	=	=	=	=	=	=	=
2D	2D	.	1A	.	2d]	.	2r	.	2g]	.
2D	2D	-xi	.	.	2d	-xi	2dd	Si-	2f#	-xi
=	=	=	=	=	=	=	=	=	=	=
1GG	1GG	vos	1G	.	[1d	Vos	2b	-cut	2g	Vos
.	.	.	.	.	.	.	2g	di-	2dd	di-
=	=	=	=	=	=	=	=	=	=	=
2r	2r	.	1A	-xi	1d]	.	4f	-le-	1ff	.
.	.	.	.	.	.	.	4g	.	.	.
2D	2D	di-	.	.	.	.	4a	.	.	.
.	.	.	.	.	.	.	4f	.	.	.
=	=	=	=	=	=	=	=	=	=	=
1G	1G	-cit	1B	.	2r	.	4g	.	1dd	-cit
.	.	.	.	.	.	.	4a	.	.	.
.	.	.	.	.	2d	di-	4b	.	.	.
.	.	.	.	.	.	.	4g	.	.	.
=	=	=	=	=	=	=	=	=	=	=
1D	[1D	Do-	1A	vos	1f	-cit	2a	.	2.dd	Do-
.	.	.	.	.	.	.	2f	-xi	.	.
.	.	.	.	.	.	.	.	.	4cc	.
=	=	=	=	=	=	=	=	=	=	=
1E	1E	.	1G	.	4e	Do-	1g	Vos	2b	.
.	.	.	.	.	4f	.	.	.	.	.
.	.	.	.	.	4g	.	.	.	2cc	-mi-
.	.	.	.	.	4e	.	.	.	.	.
=	=	=	=	=	=	=	=	=	=	=
2.D	2.D	.	1A	di-	2.f	.	2r	.	1dd	-nus;
.	.	.	.	.	.	.	2a	di-	.	.
4C	4C	.	.	.	4e	.	.	.	.	.
=	=	=	=	=	=	=	=	=	=	=
2BB	2BB	.	1G	-cit	2d	.	1b	-cit	1r	.
2C	2C	-mi-	.	.	2e	-mi-	.	.	.	.
=	=	=	=	=	=	=	=	=	=	=
1D	1D	-nus	1F	.	1f	-nus	2a	Do-	2r	.
.	.	.	.	.	.	.	4g	.	2a	di-
.	.	.	.	.	.	.	4f	.	.	.
=	=	=	=	=	=	=	=	=	=	=
2E	2E	Do-	1G	Do-	1r	.	4e	.	1cc	-cit
.	.	.	.	.	.	.	4f	.	.	.
2C	2C	-mi-	.	.	.	.	4g	.	.	.
.	.	.	.	.	.	.	4e	.	.	.
=	=	=	=	=	=	=	=	=	=	=
1D	1D	-nus	1F	.	2r	.	2.f	.	2.a	Do-
.	.	.	.	.	2g	di-	.	.	.	.
.	.	.	.	.	.	.	4f	-mi-	4b	.
=	=	=	=	=	=	=	=	=	=	=
2AA	2AA	di-	[1E	.	2a	-cit	2c	-nus	2.cc	.
[2C	[2C	.	.	.	[2g	Do-	2cc	di-	.	.
.	.	.	.	.	.	.	.	.	4dd	.
=	=	=	=	=	=	=	=	=	=	=
2C]	2C]	.	2E]	.	4g]	.	1ee	-cit	4ee	.
.	.	.	.	.	4f	.	.	.	4ff	.
2GG#	2GG#	-cit	2E	-mi-	4e	.	.	.	[2ee	.
.	.	.	.	.	4d	.	.	.	.	.
=	=	=	=	=	=	=	=	=	=	=
[1AA	[1AA	Do-	[1E	-nus.	4c	.	[1a	Do-	4ee]	.
.	.	.	.	.	4d	.	.	.	4dd	.
.	.	.	.	.	[2e	.	.	.	4cc	.
.	.	.	.	.	.	.	.	.	4b	.
=	=	=	=	=	=	=	=	=	=	=
2AA]	2AA]	.	1E_	.	2e]	.	2a]	.	2.cc	.
2AA	2AA	-mi-	.	.	2e	-mi-	2a	-mi-	.	.
.	.	.	.	.	.	.	.	.	4cc	-mi-
=	=	=	=	=	=	=	=	=	=	=
[1E	[1E	-nus	1E_	.	[1e	-nus	[1g#	-nus	[1b	-nus.
=	=	=	=	=	=	=	=	=	=	=
1E]	1E]	.	1E]	.	1e]	.	1g#]	.	1b]	.
=||	=||	=||	=||	=||	=||	=||	=||	=||	=||	=||
G	G	Be-	G	Be-	.	.	.	.	.	.
A	(>A	-a-	(>A	-a-	.	.	.	.	.	.
c	c)	.	c)	.	.	.	.	.	.	.
c	c	-ti	c	-ti	.	.	.	.	.	.
c	c	im-	c	im-	.	.	.	.	.	.
c	c	-ma-	c	-ma-	.	.	.	.	.	.
c	c	-cu-	c	-cu-	.	.	.	.	.	.
c	(>c	-la-	(>c	-la-	.	.	.	.	.	.
d	d)	.	d)	.	.	.	.	.	.	.
c	c	-ti	c	-ti	.	.	.	.	.	.
c	(>c	in	(>c	in	.	.	.	.	.	.
B	B)	.	B)	.	.	.	.	.	.	.
A	A	vi-	A	vi-	.	.	.	.	.	.
A	(>A	-a	(>A	-a	.	.	.	.	.	.
c	c)	.	c)	.	.	.	.	.	.	.
=||	=||	=||	=||	=||	=||	=||	=||	=||	=||	=||
*M2/2	*M2/2	*	*M2/2	*	*M2/2	*	*M2/2	*	*M2/2	*
1C	1C	Qui	1c	Qui	1e	Qui	1g	Qui	1cc	Qui
=	=	=	=	=	=	=	=	=	=	=
[1F	[1F	am-	[1c	am-	[1f	am-	[1a	am-	[1cc	am-
=	=	=	=	=	=	=	=	=	=	=
2F]	2F]	.	2c]	.	2f]	.	2a]	.	2cc]	.
2F	2F	-bu-	2c	-bu-	2f	-bu-	2a	-bu-	2cc	-bu-
=	=	=	=	=	=	=	=	=	=	=
1F	1F	-lant	1c	-lant	1f	-lant	1a	-lant	2cc	-lant
.	.	.	.	.	.	.	.	.	2a	in
=	=	=	=	=	=	=	=	=	=	=
1E	1E	in	1c	in	1g	in	2g	in	2cc	le-
.	.	.	.	.	.	.	[2cc	le-	2g	-ge
=	=	=	=	=	=	=	=	=	=	=
[1F	[1F	le-	1c	le-	[1f	le-	4cc]	.	2.a	Do-
.	.	.	.	.	.	.	4b	.	.	.
.	.	.	.	.	.	.	[2a	.	.	.
.	.	.	.	.	.	.	.	.	4g	.
=	=	=	=	=	=	=	=	=	=	=
2F]	2F]	.	1A	-ge	1f]	.	4a]	.	4f	.
.	.	.	.	.	.	.	4g	.	4g	.
2D	2D	-ge	.	.	.	.	2f	.	4a	.
.	.	.	.	.	.	.	.	.	4f	.
=	=	=	=	=	=	=	=	=	=	=
1E	1E	in	[1c	Do-	1c	-ge	2e	-ge	2.g	.
.	.	.	.	.	.	.	2cc	in	.	.
.	.	.	.	.	.	.	.	.	4g	-mi-
=	=	=	=	=	=	=	=	=	=	=
2F	2F	le-	2c]	.	2r	.	[1a	le-	2cc	-ni
2C	2C	-ge-	2c	-mi-	2e	in	.	.	2cc	in
=	=	=	=	=	=	=	=	=	=	=
2D	2D	-Do-	1A	-ni	4f	le-	4a]	.	2.ff	le-
.	.	.	.	.	4g	.	4b	.	.	.
2AA	2AA	.	.	.	2a	.	2cc	.	.	.
.	.	.	.	.	.	.	.	.	4ee	.
=	=	=	=	=	=	=	=	=	=	=
2BB	2BB	.	1G	.	2d	-ge	2dd	-ge	2dd	.
[2C	2C	.	.	.	[2g	Do-	[2g	Do-	[2ee	.
=	=	=	=	=	=	=	=	=	=	=
2C]	2C	.	1G	.	4g]	.	4g]	.	4ee]	.
.	.	.	.	.	4f	.	4a	.	4dd	.
2GG	2GG	.	.	.	4e	.	[2b	.	4cc	-ge
.	.	.	.	.	4d	.	.	.	4b	.
=	=	=	=	=	=	=	=	=	=	=
1AA	[1AA	.	[1E	.	4c	.	2b]	.	[1cc	Do-
.	.	.	.	.	4d	.	.	.	.	.
.	.	.	.	.	[2e	.	4a	.	.	.
.	.	.	.	.	.	.	4g#	.	.	.
=	=	=	=	=	=	=	=	=	=	=
1AA	2AA]	.	1E_	.	2e]	.	2.a	.	2cc]	.
.	2AA	-mi-	.	.	2e	-mi-	.	.	2cc	-mi-
.	.	.	.	.	.	.	4a	-mi-	.	.
=	=	=	=	=	=	=	=	=	=	=
[1E	[1E	-ni.	1E_	.	[1e	-ni.	[1g#	-ni	[1b	-ni.
=	=	=	=	=	=	=	=	=	=	=
1E]	1E]	.	1E]	.	1e]	.	1g#]	.	1b]	.
=||	=||	=||	=||	=||	=||	=||	=||	=||	=||	=||
D	D	Post	D	Post	.	.	.	.	.	.
F	F	quam	F	quam	.	.	.	.	.	.
G	G	sur-	G	sur-	.	.	.	.	.	.
A	A	-re-	A	-re-	.	.	.	.	.	.
A	A	-xit	A	-xit	.	.	.	.	.	.
A	A	Do-	A	Do-	.	.	.	.	.	.
A	A	-mi-	A	-mi-	.	.	.	.	.	.
A	A	-nus	A	-nus	.	.	.	.	.	.
A	A	a	A	a	.	.	.	.	.	.
G	G	coe-	G	coe-	.	.	.	.	.	.
G	(>G	-na	(>G	-na	.	.	.	.	.	.
A	A)	.	A)	.	.	.	.	.	.	.
=||	=||	=||	=||	=||	=||	=||	=||	=||	=||	=||
*M2/2	*M2/2	*	*M2/2	*	*M2/2	*	*M2/2	*	*M2/2	*
1F	1F	Mit-	1A	Mit-	2r	.	1r	.	1f	Mit-
.	.	.	.	.	[2f	Mit-	.	.	.	.
=	=	=	=	=	=	=	=	=	=	=
1C	1C	-tit	1c	-tit	2f]	.	1r	.	2g	-tit
.	.	.	.	.	2e	-tit	.	.	[2a	a-
=	=	=	=	=	=	=	=	=	=	=
[1D	[1D	a-	1A	a-	4d	a-	2r	.	4a]	.
.	.	.	.	.	4e	.	.	.	4g	.
.	.	.	.	.	[2f	.	[2a	Mit-	4f	.
.	.	.	.	.	.	.	.	.	4g	.
=	=	=	=	=	=	=	=	=	=	=
2D]	2D]	.	1A	-quam	2f]	.	2a]	.	[1a	.
2C	2C	-quam	.	.	2e	.	2cc	-tit	.	.
=	=	=	=	=	=	=	=	=	=	=
2.BB-	2.BB-	in	1B-	in	2d	-quam	1dd	a-	2a]	.
.	.	.	.	.	[2g	mit-	.	.	2g	-quam
4C	4C	.	.	.	.	.	.	.	.	.
=	=	=	=	=	=	=	=	=	=	=
1D	[1D	pel-	1A	pel-	2g]	.	1a	-quam	2r	.
.	.	.	.	.	2f	-tit	.	.	2dd	in
=	=	=	=	=	=	=	=	=	=	=
1AA	1AA	.	[1A	-vim	2e	a-	2r	.	2dd	pel-
.	.	.	.	.	[2a	.	2a	in	2cc#	.
=	=	=	=	=	=	=	=	=	=	=
1D	1D	-vim	1A]	.	4a]	.	4a	pel-	1dd	-vim
.	.	.	.	.	4g	.	4b	.	.	.
.	.	.	.	.	2f#	.	[2cc	.	.	.
=	=	=	=	=	=	=	=	=	=	=
2r	2r	.	1G	coe-	1g	-quam	2cc]	.	2r	.
2GG	2GG	coe-	.	.	.	.	2b	.	2b	et
=	=	=	=	=	=	=	=	=	=	=
2C	2C	-pit	1G	-pit	2r	.	1cc	-vim	[1ee	Coe-
2C	2C	la-	.	.	2e	in	.	.	.	.
=	=	=	=	=	=	=	=	=	=	=
1E	[1E	-va-	1G	la-	1e	pel-	2r	.	2ee]	.
.	.	.	.	.	.	.	2g	Coe-	2cc#	-pit
=	=	=	=	=	=	=	=	=	=	=
1D	1D	.	1A	-va-	[1d	-vim	2g	-pit	2.dd	la-
.	.	.	.	.	.	.	2f#	la-	.	.
.	.	.	.	.	.	.	.	.	4cc	.
=	=	=	=	=	=	=	=	=	=	=
1GG	[1GG	-re	1G	-re	2d]	.	4g	-va-	4b	.
.	.	.	.	.	.	.	4a	.	4a	.
.	.	.	.	.	2d	Coe-	4b	.	4g	.
.	.	.	.	.	.	.	4cc	.	4a	.
=	=	=	=	=	=	=	=	=	=	=
1GG	1GG]	.	1G	pe-	2g	-pit	2dd	-re	1b	-va-
.	.	.	.	.	2e	la-	[2ee	pe-	.	.
=	=	=	=	=	=	=	=	=	=	=
1AA	1AA	pe-	1E	-des	1e	-va-	4ee]	.	2a	-re
.	.	.	.	.	.	.	4dd	.	.	.
.	.	.	.	.	.	.	2cc	.	[2a	pe-
=	=	=	=	=	=	=	=	=	=	=
1E	1E	-des	1E	di-	1e	-re	1b	-des	2a]	.
.	.	.	.	.	.	.	.	.	2g	-des
=	=	=	=	=	=	=	=	=	=	=
1D	1D	di-	1F	-sci-	2A	pe-	2r	.	2r	.
.	.	.	.	.	2B	.	2dd	dis-	2b	dis-
=	=	=	=	=	=	=	=	=	=	=
[1C	[1C	-sci-	1G	-pu-	1e	-des	2ee	-ci-	2cc	-ci-
.	.	.	.	.	.	.	2dd	-pu-	2dd	-pu-
=	=	=	=	=	=	=	=	=	=	=
2C]	2C]	.	[1G	-lo-	2r	.	2.g	-lo-	2ee	-lo-
2BB	2BB	-pu-	.	.	2g	dis-	.	.	2dd	-rum
.	.	.	.	.	.	.	8aL	.	.	.
.	.	.	.	.	.	.	8bJ	.	.	.
=	=	=	=	=	=	=	=	=	=	=
2AA	2AA	-lo-	1A	.	2g	-ci-	2cc	.	2cc	Su-
2D	2D	.	.	.	2f	-pu-	2a	.	[2dd	-o-
=	=	=	=	=	=	=	=	=	=	=
[1GG	[1GG	-rum	[1G	-rum	1g	-lo-	2.b	.	4dd]	.
.	.	.	.	.	.	.	.	.	4cc	.
.	.	.	.	.	.	.	.	.	4b	.
.	.	.	.	.	.	.	4cc	.	4a	.
=	=	=	=	=	=	=	=	=	=	=
1GG]	1GG]	.	1G]	.	2d	-rum	2dd	.	1b	.
.	.	.	.	.	2g	dis-	2b	.	.	.
=	=	=	=	=	=	=	=	=	=	=
1C	1C	hoc	1E	hoc	2g	-ci-	4ee	.	2g	-rum
.	.	.	.	.	.	.	4dd	.	.	.
.	.	.	.	.	2e	-pu-	4cc	.	[2cc	hoc
.	.	.	.	.	.	.	4b	.	.	.
=	=	=	=	=	=	=	=	=	=	=
1FF	1F	ex-	1F	ex-	4a	-lo-	1a	.	2cc]	.
.	.	.	.	.	4g	.	.	.	.	.
.	.	.	.	.	[2f	.	.	.	2a	ex-
=	=	=	=	=	=	=	=	=	=	=
1C	1C	-em-	[1G	-em-	2f]	.	2g	-rum	1cc	-em-
.	.	.	.	.	2e	.	2cc	dis-	.	.
=	=	=	=	=	=	=	=	=	=	=
1FF	1FF	-plum	1F	.	1f	-rum	2cc	-ci-	1a	-plum
.	.	.	.	.	.	.	2a	-pu-	.	.
=	=	=	=	=	=	=	=	=	=	=
1C	1C	re-	[1E	-plum	1r	.	1g	-lo-	2r	.
.	.	.	.	.	.	.	.	.	2cc	hoc
=	=	=	=	=	=	=	=	=	=	=
1D	1D	-li-	1D	.	2f	hoc	1f	.	2a	ex-
.	.	.	.	.	2d	ex-	.	.	2dd	-em-
=	=	=	=	=	=	=	=	=	=	=
1AA	1AA	-quit	1C	re-	2.a	-em-	2e	-rum	2ee	-plum
.	.	.	.	.	.	.	[2a	hoc	2ee	ex-
.	.	.	.	.	4g	.	.	.	.	.
=	=	=	=	=	=	=	=	=	=	=
1D	1D	re-	[1D	-li-	2f	.	2a]	.	1dd	-em-
.	.	.	.	.	2d	-plum	2b	ex-	.	.
=	=	=	=	=	=	=	=	=	=	=
1C	1C	-li-	1E	.	1g	re-	1cc	-em-	2g	-plum
.	.	.	.	.	.	.	.	.	[2cc	re-
=	=	=	=	=	=	=	=	=	=	=
2.FF	2.FF	-quit	1F	-quit	2a	-li-	1a	-plum	2cc]	.
.	.	.	.	.	2a	-quit-	.	.	2dd	.
4GG	4GG	.	.	.	.	.	.	.	.	.
=	=	=	=	=	=	=	=	=	=	=
2AA	2AA	e-	[1E	e-	[1e	-e-	2a	re-	4cc#	-li-
.	.	.	.	.	.	.	.	.	4cc#	-quit
2GG	2GG	.	.	.	.	.	2b-	-li-	[2dd	e-
=	=	=	=	=	=	=	=	=	=	=
1AA	1AA	.	1E]	.	1e]	.	1a	-quit	2dd]	.
.	.	.	.	.	.	.	.	.	2cc#	.
=	=	=	=	=	=	=	=	=	=	=
[1D	[1D	-is	[1D	-is-	[1f	-is.	1a	Je-	[1dd	-is.
=	=	=	=	=	=	=	=	=	=	=
1D]	1D]	.	1D]	.	1f]	.	1a	-sus	1dd]	.
=||	=||	=||	=||	=||	=||	=||	=||	=||	=||	=||
F	F	Ma-	F	-Ma-	.	.	.	.	.	.
G	(>G	-gnus-	(>G	-gnus-	.	.	.	.	.	.
A	A)	.	A)	.	.	.	.	.	.	.
A	A	-Do-	A	-Do-	.	.	.	.	.	.
A	A	-mi-	A	-mi-	.	.	.	.	.	.
A	A	-nus	A	-nus	.	.	.	.	.	.
A	A	et	A	et	.	.	.	.	.	.
A	A	lau-	A	lau-	.	.	.	.	.	.
B-	B-	-da-	B-	-da-	.	.	.	.	.	.
A	A	-bi-	A	-bi-	.	.	.	.	.	.
A	A	-lis	A	-lis	.	.	.	.	.	.
A	(>A	ni-	(>A	ni-	.	.	.	.	.	.
G	G)	.	G)	.	.	.	.	.	.	.
G	(>G	-mis	(>G	-mis	.	.	.	.	.	.
F	F)	.	F)	.	.	.	.	.	.	.
=||	=||	=||	=||	=||	=||	=||	=||	=||	=||	=||
*M2/2	*M2/2	*	*M2/2	*	*M2/2	*	*M2/2	*	*M2/2	*
[1C	[1C	In	[1G	In-	[1e	In	1r	.	2g	In
.	.	.	.	.	.	.	.	.	[2cc	Ci-
=	=	=	=	=	=	=	=	=	=	=
1C]	1C]	.	1G]	.	1e]	.	2r	.	2cc]	.
.	.	.	.	.	.	.	2e	In	2cc	-vi-
=	=	=	=	=	=	=	=	=	=	=
[1F	[1F	ci-	[1A	-Ci-	[1f	Ci-	[1a	Ci-	[1cc	-ta-
=	=	=	=	=	=	=	=	=	=	=
2F]	2F]	.	2A]	.	2f]	.	2a]	.	2cc]	.
2F	2F	-vi-	2A	-vi-	2f	-vi-	2a	-vi-	2cc	-te
=	=	=	=	=	=	=	=	=	=	=
[1F	[1F	-ta-	1A	-ta-	[1f	-ta-	[1a	-ta-	1cc	De-
=	=	=	=	=	=	=	=	=	=	=
2F]	2F]	.	1A	-te	2f]	.	2a]	.	1a	-i
2C#	2C#	-te	.	.	2e	-te	2g	-te	.	.
=	=	=	=	=	=	=	=	=	=	=
[1D	[1D	De-	1A	De-	[1d	De-	2f	De-	2dd	nos-
.	.	.	.	.	.	.	2d	.	[2ff	.
=	=	=	=	=	=	=	=	=	=	=
2D]	2D]	.	1A	-i	2d]	.	1a	.	4ff]	.
.	.	.	.	.	.	.	.	.	4ee	.
2AA	2AA	-i	.	.	2e	-i	.	.	4dd	.
.	.	.	.	.	.	.	.	.	4cc#	.
=	=	=	=	=	=	=	=	=	=	=
1D	1D	no-	1A	no-	1f	no-	2a	-i	2dd	.
.	.	.	.	.	.	.	2dd	in	[2a	.
=	=	=	=	=	=	=	=	=	=	=
1AA	1AA	-stri	1A	-stri	2e	-stri	2cc#	mon-	4a]	.
.	.	.	.	.	.	.	.	.	4b	.
.	.	.	.	.	2a	in	2a	-te	2cc#	.
=	=	=	=	=	=	=	=	=	=	=
2r	2r	.	1A	in	2f	mon-	4a	San-	1dd	.
.	.	.	.	.	.	.	4g	.	.	.
2D	2D	in	.	.	2d	-te	4f	.	.	.
.	.	.	.	.	.	.	4g	.	.	.
=	=	=	=	=	=	=	=	=	=	=
[1D	[1D	mon-	1A	mon-	[1f	San-	1a	.	1a	-tri
=	=	=	=	=	=	=	=	=	=	=
2D]	2D]	.	1A	-te	2f]	.	1a	-cto	2r	.
2C	2C	-te	.	.	2e	-cto	.	.	2a	in
=	=	=	=	=	=	=	=	=	=	=
2D	1D	san-	1A	san-	4d	e-	1r	.	2f	mon-
.	.	.	.	.	4e	.	.	.	.	.
2D	.	.	.	.	[2f	.	.	.	2d	-te
=	=	=	=	=	=	=	=	=	=	=
2BB	2BB	-cto	[1G	-cto	2f]	.	2r	.	1g	San-
2C	2C	e-	.	.	2e	.	2cc	in	.	.
=	=	=	=	=	=	=	=	=	=	=
1FF	1FF	-ius	1F	.	2f	-ius	2a	mon-	2a	-cto
.	.	.	.	.	2a	in	2f	-te	2ff	in
=	=	=	=	=	=	=	=	=	=	=
2r	2r	.	1G	e-	2g	mon-	[1cc	San-	2ee	mon-
2C	2C	in	.	.	[2e	-te	.	.	2cc	-te
=	=	=	=	=	=	=	=	=	=	=
2AA	2AA	mon-	[1A	.	2e]	.	2cc]	.	1cc	San-
2FF	2FF	-te	.	.	2f	San-	[2a	.	.	.
=	=	=	=	=	=	=	=	=	=	=
2F	2F	san-	1A_	.	2c	-cto	4a]	.	1a	-cto
.	.	.	.	.	.	.	4g	.	.	.
2D	2D	-cto	.	.	[2d	e-	2f	-cto	.	.
=	=	=	=	=	=	=	=	=	=	=
1AA	1A	e-	1A]	.	2d]	.	1e	e-	1a	e-
.	.	.	.	.	2c#	.	.	.	.	.
=	=	=	=	=	=	=	=	=	=	=
[1D	[1D	-ius	[1A	-ius	[1d	-ius	[1f#	-ius	[1a	-ius.
=	=	=	=	=	=	=	=	=	=	=
1D]	1D]	.	1A]	.	1d]	.	1f#]	.	1a]	.
=	=	=	=	=	=	=	=	=	=	=
[1G	[1G	Ve-	1G	Ve-	1d	Ve-	[1b	Ve-	1b	Ve-
=	=	=	=	=	=	=	=	=	=	=
2G]	2G]	.	1B	-nit	1d	-nit	2b]	.	2g	-nit
2F	2F	-nit	.	.	.	.	2a	-nit	2a	.
=	=	=	=	=	=	=	=	=	=	=
1E	1E	Je-	[2B	Je-	1e	Je-	1g	Je-	2b	Je-
.	.	.	2c	.	.	.	.	.	4a	.
.	.	.	.	.	.	.	.	.	4g	.
=	=	=	=	=	=	=	=	=	=	=
2D	2D	-sus	2d	-sus	2f#	-sus	2f#	-sus	2a	-sus
2G	2G	ad	2d	ad	2g	ad	2b	ad	2b	ad
=	=	=	=	=	=	=	=	=	=	=
2c	2.c	Si-	2.e	Si-	2g	Si-	1g	Si-	2cc	Si-
2B	.	.	.	.	[2g	-mo-	.	.	2g	-mo-
.	4B	.	4d	.	.	.	.	.	.	.
=	=	=	=	=	=	=	=	=	=	=
1A	1A	-mo-	1c	-mo-	2g]	.	2cc	-mo-	2a	-nem
.	.	.	.	.	2f#	.	2cc	-nem	2a	Pe-
=	=	=	=	=	=	=	=	=	=	=
1G	1G	-nem	2c	-nem	1g	-nem	1dd	Pe-	2d	-trum
.	.	.	2B	Pe-	.	.	.	.	2dd	et
=	=	=	=	=	=	=	=	=	=	=
2C	2C	Pe-	2c	-trum	2g	Pe-	2cc	-trum	1ee	di-
2C	2C	-trum	2c	et	2g	-trum	2cc	et	.	.
=	=	=	=	=	=	=	=	=	=	=
1G	1G	et	2d	di-	1g	et	2b	di-	2dd	-xit
.	.	.	2B	-xit	.	.	2g	-xit	2dd	e-
=	=	=	=	=	=	=	=	=	=	=
2F#	2F#	di-	2A	e-	1d	di-	2a	e-	2.dd	.
[2G	[2G	-xit	[2B	.	.	.	2g	-i	.	.
.	.	.	.	.	.	.	.	.	4cc	-i
=	=	=	=	=	=	=	=	=	=	=
2G]	2G]	.	2B]	.	2d	-xit	1g	Pe-	2b	Pe-
2E	2E	e-	2c	-i	2e	e-	.	.	4a	.
.	.	.	.	.	.	.	.	.	4g	.
=	=	=	=	=	=	=	=	=	=	=
[1D	1D	-i	[1d	Pe-	2f#	-i	2a	.	2f#	.
.	.	.	.	.	[2d	Pe-	2b	.	[2g	.
=	=	=	=	=	=	=	=	=	=	=
1D]	1D	Pe-	1d]	.	4d]	.	1a	.	2g]	.
.	.	.	.	.	4e	.	.	.	.	.
.	.	.	.	.	4f#	.	.	.	2f#	.
.	.	.	.	.	4e	.	.	.	.	.
=	=	=	=	=	=	=	=	=	=	=
[1GG	[1GG	-trus	[1B	-trus	[1d	-trus.	[1b	-trus	[1g	-trus.
=	=	=	=	=	=	=	=	=	=	=
1GG]	1GG]	.	1B]	.	1d]	.	1b]	.	1g]	.
=||	=||	=||	=||	=||	=||	=||	=||	=||	=||	=||
G	(>G	Do-	(>G	Do-	.	.	.	.	.	.
d	d	.	d	.	.	.	.	.	.	.
B	B	.	B	.	.	.	.	.	.	.
d	d	.	d	.	.	.	.	.	.	.
e	e)	.	e)	.	.	.	.	.	.	.
d	d	-mi-	d	-mi-	.	.	.	.	.	.
d	d	-ne	d	-ne	.	.	.	.	.	.
d	d	tu	d	tu	.	.	.	.	.	.
d	d	mi-	d	mi-	.	.	.	.	.	.
B	(>B	-hi	(>B	-hi	.	.	.	.	.	.
c	c)	.	c)	.	.	.	.	.	.	.
d	d	la-	d	la-	.	.	.	.	.	.
A	(>A	-vas	(>A	-vas	.	.	.	.	.	.
B	B)	.	B)	.	.	.	.	.	.	.
G	G	pe-	G	pe-	.	.	.	.	.	.
G	G	-des	G	-des	.	.	.	.	.	.
=||	=||	=||	=||	=||	=||	=||	=||	=||	=||	=||
*M2/2	*M2/2	*	*M2/2	*	*M2/2	*	*M2/2	*	*M2/2	*
[1G	1r	.	[1G	Re-	[1g	Res-	1g	Res-	2g	Res-
.	.	.	.	.	.	.	.	.	[2b	-pon-
=	=	=	=	=	=	=	=	=	=	=
1G]	1r	.	1G]	.	1g]	.	1g	-pon	2b]	.
.	.	.	.	.	.	.	.	.	2cc#	-dit
=	=	=	=	=	=	=	=	=	=	=
1B	1r	.	1B	-spon-	1g	-pon-	2g	dit	2dd	Je-
.	.	.	.	.	.	.	2b	Je-	2dd	-sus
=	=	=	=	=	=	=	=	=	=	=
1c	1r	.	1c	-dit	1e	-dit	2g	-sus	4ee	et
.	.	.	.	.	.	.	.	.	4dd	.
.	.	.	.	.	.	.	[2g	et	4cc	.
.	.	.	.	.	.	.	.	.	4b	.
=	=	=	=	=	=	=	=	=	=	=
1d	1r	.	1d	Je-	1d	Je-	2g]	.	[1a	di-
.	.	.	.	.	.	.	4f#	.	.	.
.	.	.	.	.	.	.	4e	.	.	.
=	=	=	=	=	=	=	=	=	=	=
1d	1r	.	1d	-sus	1d	-sus	1f#	di-	2a]	.
.	.	.	.	.	.	.	.	.	2b	-xit
=	=	=	=	=	=	=	=	=	=	=
2c	2r	.	1c	et	1e	et	[1g	-xit	2cc	et
2C	[2C	Re-	.	.	.	.	.	.	2g	.
=	=	=	=	=	=	=	=	=	=	=
2C	2C]	.	1e	di-	[1c	.	1g]	.	1g	di-
2E	2E	-spon-	.	.	.	.	.	.	.	.
=	=	=	=	=	=	=	=	=	=	=
2F	2F	-dit	[1d	-xit	2c]	.	1r	.	2a	-xit
[2G	[2G	Je-	.	.	4B	.	.	.	[2b	Je-
.	.	.	.	.	4A	.	.	.	.	.
=	=	=	=	=	=	=	=	=	=	=
2G]	2G]	.	1d]	.	2B	.	1r	.	2b]	.
2G	2G	-sus	.	.	2B	di-	.	.	2b	-sus
=	=	=	=	=	=	=	=	=	=	=
1C	1C	et	1e	Si	1G	-xit	2r	.	[1cc	et
.	.	.	.	.	.	.	2cc	Si	.	.
=	=	=	=	=	=	=	=	=	=	=
1G	1G	di-	1d	non	2r	.	1dd	non	2cc]	.
.	.	.	.	.	2d	Si	.	.	[2b	di-
=	=	=	=	=	=	=	=	=	=	=
1GG	1GG	-xit	1B	la-	2d	non	1dd	la-	4b]	.
.	.	.	.	.	.	.	.	.	4cc	.
.	.	.	.	.	2g	la-	.	.	4dd	.
.	.	.	.	.	.	.	.	.	4cc	.
=	=	=	=	=	=	=	=	=	=	=
1D	1D	si	1d	-ve-	2g	-ve-	1dd	-ve-	2b	.
.	.	.	.	.	2f#	.	.	.	2a	.
=	=	=	=	=	=	=	=	=	=	=
2E	2E	non	1c	-ro	1e	-ro	2g	-ro	2g	-xit
2F#	2F#	la-	.	.	.	.	2a	ti-	2r	.
=	=	=	=	=	=	=	=	=	=	=
1G	1G	-ve-	1B	ti-	2d	ti-	2.b	-bi	1r	.
.	.	.	.	.	2g	-bi	.	.	.	.
.	.	.	.	.	.	.	4cc	.	.	.
=	=	=	=	=	=	=	=	=	=	=
1D	1D	-ro	1A	-bi	2g	pe-	1dd	pe-	1r	.
.	.	.	.	.	2f#	.	.	.	.	.
=	=	=	=	=	=	=	=	=	=	=
[1E	[1E	ti-	1G	pe-	[1g	-des	1g	.	2r	.
.	.	.	.	.	.	.	.	.	2b	Si
=	=	=	=	=	=	=	=	=	=	=
2E]	2E]	.	[1G	-des	1g]	.	[1g	-des	2cc	non
2BB	2BB	-bi	.	.	.	.	.	.	2dd	la-
=	=	=	=	=	=	=	=	=	=	=
2.C	2.C	pe-	1G]	.	2r	.	1g]	.	2ee	-ve-
.	.	.	.	.	2e	Si	.	.	2cc	-ro
4BB	4BB	.	.	.	.	.	.	.	.	.
=	=	=	=	=	=	=	=	=	=	=
2AA	2AA	.	1A	non	2e	non	1r	.	2ee	.
2D	2D	.	.	.	2f#	la-	.	.	[2dd	ti-
=	=	=	=	=	=	=	=	=	=	=
1GG	1GG	-des	1G	ha-	2g	-ve-	1r	.	2.dd]	.
.	.	.	.	.	2e	.	.	.	.	.
.	.	.	.	.	.	.	.	.	8ccL	-bi
.	.	.	.	.	.	.	.	.	8bJ	.
=	=	=	=	=	=	=	=	=	=	=
2r	2r	.	[1F#	-be-	4f#	-ro	1r	.	2a	pe-
.	.	.	.	.	4g	.	.	.	.	.
2D	2D	non	.	.	4a	ti-	.	.	[2dd	.
.	.	.	.	.	4f#	.	.	.	.	.
=	=	=	=	=	=	=	=	=	=	=
2E	2E	ha-	1E	.	1g	.	2r	.	2dd]	.
[2G	[2G	-be-	.	.	.	.	2g	non	2cc#	.
=	=	=	=	=	=	=	=	=	=	=
2G]	2G]	.	1D	-bis	1d	-bi	2a	ha-	1dd	-des
2F#	2F#	-bis	.	.	.	.	[2a	-be-	.	.
=	=	=	=	=	=	=	=	=	=	=
1D	1D	par-	1F#	par-	1d	pe-	2a]	.	2r	.
.	.	.	.	.	.	.	2b	.	2b	non
=	=	=	=	=	=	=	=	=	=	=
2.C	2.C	.	[1G	-tem	1e	-des	2g	-bis	2cc	ha-
.	.	.	.	.	.	.	[2cc	par-	[2ee	-be-
4BB	4BB	.	.	.	.	.	.	.	.	.
=	=	=	=	=	=	=	=	=	=	=
1AA	1AA	-tem	1A	.	2r	.	4cc]	.	4ee]	.
.	.	.	.	.	.	.	4dd	.	4dd	.
.	.	.	.	.	2c	non	2ee	.	4cc	.
.	.	.	.	.	.	.	.	.	4b	.
=	=	=	=	=	=	=	=	=	=	=
2D	2D	me-	[1A	me-	2d	ha-	2dd	-tem	1a	-bis
2C	2C	.	.	.	2e	-be-	[2a	me-	.	.
=	=	=	=	=	=	=	=	=	=	=
[1D	[1D	.	1A_	.	2d	-bis	2a]	.	2a	par-
.	.	.	.	.	2g	par-	2g	-cum	[2cc	.
=	=	=	=	=	=	=	=	=	=	=
1D_	1D_	.	1A_	.	2f#	-tem	2a	par-	2cc]	.
.	.	.	.	.	[2g	me-	2g	-tem	2b	-tem
=	=	=	=	=	=	=	=	=	=	=
1D]	1D]	.	1A]	.	2g]	.	2a	me-	1a	me-
.	.	.	.	.	2f#	.	2dd	.	.	.
=	=	=	=	=	=	=	=	=	=	=
[1GG	[1GG	-cum	[1G	-cum.-	[1g	-cum.	[1dd	-cum	[1b	-cum.
=	=	=	=	=	=	=	=	=	=	=
1GG]	1GG]	.	1G]	.	1g]	.	1dd]	.	1b]	.
=||	=||	=||	=||	=||	=||	=||	=||	=||	=||	=||
G	G	Au-	G	-Au-	.	.	.	.	.	.
F#	F#	-di-	F#	-di-	.	.	.	.	.	.
G	(>G	-te	(>G	-te	.	.	.	.	.	.
A	A)	.	A)	.	.	.	.	.	.	.
A	(>A	haec	(>A	haec	.	.	.	.	.	.
G	G)	.	G)	.	.	.	.	.	.	.
G	(>G	o-	(>G	o-	.	.	.	.	.	.
B	B)	.	B)	.	.	.	.	.	.	.
B	B	-mnes	B	-mnes	.	.	.	.	.	.
A	(>A	gen-	(>A	gen-	.	.	.	.	.	.
B	B)	.	B)	.	.	.	.	.	.	.
A	A	-tes	A	-tes	.	.	.	.	.	.
=||	=||	=||	=||	=||	=||	=||	=||	=||	=||	=||
*M2/2	*M2/2	*	*M2/2	*	*M2/2	*	*M2/2	*	*M2/2	*
[1D	[1D	Au-	1r	.	[1f	Au-	[1a	Au-	2.dd	Au-
.	.	.	.	.	.	.	.	.	4ee	-ri-
=	=	=	=	=	=	=	=	=	=	=
2D]	2D]	.	1r	.	2f]	.	2a]	.	2ff	-bus
2C#	2C#	-ri-	.	.	2e	-ri-	2a	-ri-	[2cc#	per-
=	=	=	=	=	=	=	=	=	=	=
1C#	1C#	-bus	[1A	Au-	2e	-bus	[1a	-bus	2cc#]	.
.	.	.	.	.	2e	per-	.	.	2ee	.
=	=	=	=	=	=	=	=	=	=	=
1D	1D	per-	1A]	.	2.f	-ci-	1a]	.	2.dd	-ci-
.	.	.	.	.	4f	-pi-	.	.	4b	-pi-
=	=	=	=	=	=	=	=	=	=	=
[1E	[1E	-ci-	1G	-ri-	2g	-te	2r	.	1cc	-te
.	.	.	.	.	4g	om-	2cc	per-	.	.
.	.	.	.	.	4f	.	.	.	.	.
=	=	=	=	=	=	=	=	=	=	=
2E]	2E]	.	[1A	-bus	4e	.	2.ee	-ci-	1cc	om-
.	.	.	.	.	4d	.	.	.	.	.
2C	2C	-pi-	.	.	4c	.	.	.	.	.
.	.	.	.	.	4B	.	4dd	-pi-	.	.
=	=	=	=	=	=	=	=	=	=	=
1F	1F	-te	1A]	.	1c	.	2cc	-te	1a	-nes
.	.	.	.	.	.	.	[2a	om-	.	.
=	=	=	=	=	=	=	=	=	=	=
1D	1D	o-	1A	per-	1d	-nes	4a]	.	2ff	qui
.	.	.	.	.	.	.	8bL	.	.	.
.	.	.	.	.	.	.	8ccJ	.	.	.
.	.	.	.	.	.	.	[2dd	.	[2ff	ha-
=	=	=	=	=	=	=	=	=	=	=
1AA	1A	-mnes	[1A	-ci-	2r	.	2dd]	.	2ff]	.
.	.	.	.	.	2a	qui	4cc	.	4ee	.
.	.	.	.	.	.	.	4b	.	4dd	.
=	=	=	=	=	=	=	=	=	=	=
2r	2r	.	2A]	.	4e	ha-	1cc	.	2ee	.
.	.	.	.	.	4d	.	.	.	.	.
2A	2A	qui	2A	-pi-	4e	.	.	.	2cc	-bi-
.	.	.	.	.	4f#	.	.	.	.	.
=	=	=	=	=	=	=	=	=	=	=
2.G	2.G	ha-	1B	-te	2g	.	1b	-nes	1dd	-ta-
.	.	.	.	.	2d	-bi-	.	.	.	.
4F	4F	.	.	.	.	.	.	.	.	.
=	=	=	=	=	=	=	=	=	=	=
4E	4E	.	1c	om-	4g	-ta-	2r	.	1ee	-tis
4D	4D	.	.	.	4f	.	.	.	.	.
2C	2C	-bi-	.	.	4e	.	2g	qui	.	.
.	.	.	.	.	8fL	.	.	.	.	.
.	.	.	.	.	8gJ	.	.	.	.	.
=	=	=	=	=	=	=	=	=	=	=
[1F	[1F	-ta-	1A	-nes	[1f	.	4a	ha-	2cc	or-
.	.	.	.	.	.	.	4g	.	.	.
.	.	.	.	.	.	.	4f	.	2a	.
.	.	.	.	.	.	.	4g	.	.	.
=	=	=	=	=	=	=	=	=	=	=
2F]	2F]	.	1A	qui	2f]	.	4a	.	1cc	.
.	.	.	.	.	.	.	4b	.	.	.
2F	2F	-tis	.	.	2f	-tis	4cc	.	.	.
.	.	.	.	.	.	.	4dd	.	.	.
=	=	=	=	=	=	=	=	=	=	=
1C	[1C	or-	1G	ha-	2e	or-	4ee	.	1cc	-bem
.	.	.	.	.	.	.	4cc	.	.	.
.	.	.	.	.	4a	.	4dd	.	.	.
.	.	.	.	.	4g	.	4ee	.	.	.
=	=	=	=	=	=	=	=	=	=	=
1D	1D	.	1F	-bi-	4f	.	2.ff	.	2r	.
.	.	.	.	.	4e	.	.	.	.	.
.	.	.	.	.	[2d	.	.	.	2a	qui
.	.	.	.	.	.	.	4ee	-bi-	.	.
=	=	=	=	=	=	=	=	=	=	=
1GG	1GG	-bem	1G	-ta-	4d]	.	2dd	-ta-	2.b-	ha-
.	.	.	.	.	8eL	.	.	.	.	.
.	.	.	.	.	8fJ	.	.	.	.	.
.	.	.	.	.	2g	.	2ee	-tis	.	.
.	.	.	.	.	.	.	.	.	4b-	-bi-
=	=	=	=	=	=	=	=	=	=	=
1FF	1FF	qui	1A	-tis	2c	-bem	4a	or-	2a	-ta-
.	.	.	.	.	.	.	4g	.	.	.
.	.	.	.	.	2d	qui	4a	.	2f	-tis
.	.	.	.	.	.	.	4b-	.	.	.
=	=	=	=	=	=	=	=	=	=	=
1C	1C	ha-	1G	or-	2e	ha-	4cc	.	2g	or-
.	.	.	.	.	.	.	4dd	.	.	.
.	.	.	.	.	4e	-bi-	[2ee	.	[2a	.
.	.	.	.	.	4d	.	.	.	.	.
=	=	=	=	=	=	=	=	=	=	=
1D	1D	-bi-	1F	.	4f	-ta-	2ee]	.	4a]	.
.	.	.	.	.	4e	.	.	.	4g	.
.	.	.	.	.	4f	.	[2dd	.	4a	.
.	.	.	.	.	4g	.	.	.	4b	.
=	=	=	=	=	=	=	=	=	=	=
2AA	2AA	-ta-	1E	.	2a	.	2dd]	.	4cc	.
.	.	.	.	.	.	.	.	.	4dd	.
[2C	[2C	.	.	.	2e	-tis	2cc	.	4ee	.
.	.	.	.	.	.	.	.	.	4cc	.
=	=	=	=	=	=	=	=	=	=	=
2C]	2C]	.	1D	.	2a	ha-	2dd	.	2ff	.
2BB	2BB	.	.	.	4g	-bi-	2g	-bem	4ee	.
.	.	.	.	.	4f	.	.	.	4dd	.
=	=	=	=	=	=	=	=	=	=	=
2AA	2AA	.	1E	.	2.e	-ta-	2r	.	4cc	.
.	.	.	.	.	.	.	.	.	4dd	.
2GG#	2GG#	-tis-	.	.	.	.	2b	qui	[2ee	.
.	.	.	.	.	4d	.	.	.	.	.
=	=	=	=	=	=	=	=	=	=	=
[1AA	[1AA	-or-	[1E	-bem.	4c	.	4cc	ha-	4ee]	.
.	.	.	.	.	4B	.	4dd	.	4dd	.
.	.	.	.	.	4A	.	4ee	.	4cc	.
.	.	.	.	.	4B	.	4dd	.	4b	.
=	=	=	=	=	=	=	=	=	=	=
1AA_	1AA_	.	1E_	.	4c	.	4cc	.	4a	.
.	.	.	.	.	4d	.	4b	.	4g#	.
.	.	.	.	.	4c	.	4a	.	4a	.
.	.	.	.	.	4d	.	4g#	.	4b	.
=	=	=	=	=	=	=	=	=	=	=
1AA_	1AA_	.	1E_	.	2e	.	4a	.	4cc	.
.	.	.	.	.	.	.	4b	.	4dd	.
.	.	.	.	.	2e	-tis	4cc	.	4ee	.
.	.	.	.	.	.	.	4g#	-bi-	4b	.
=	=	=	=	=	=	=	=	=	=	=
1AA]	1AA]	.	1E_	.	1e	or-	4a	-ta-	4cc	.
.	.	.	.	.	.	.	4e	-tis	4a	.
.	.	.	.	.	.	.	[2a	or-	[2cc	.
=	=	=	=	=	=	=	=	=	=	=
[1E	[1E	-bem.	1E_	.	[1e	-bem.	2a]	.	2cc]	.
.	.	.	.	.	.	.	4g#	.	4b	.
.	.	.	.	.	.	.	4f#	.	4a	.
=	=	=	=	=	=	=	=	=	=	=
1E_	1E_	.	1E_	.	1e_	.	1g#	.	1b	.
=	=	=	=	=	=	=	=	=	=	=
1E]	1E]	.	1E]	.	1e]	.	1g#	-bem	1b	-bem.
=||	=||	=||	=||	=||	=||	=||	=||	=||	=||	=||
d	d	In	d	In	.	.	.	.	.	.
d	d	hoc	d	hoc	.	.	.	.	.	.
B	B	co-	B	co-	.	.	.	.	.	.
d	d	-gnos-	d	-gnos-	.	.	.	.	.	.
e	e	-cent	e	-cent	.	.	.	.	.	.
d	(>d	om-	(>d	om-	.	.	.	.	.	.
c	c	.	c	.	.	.	.	.	.	.
d	d)	.	d)	.	.	.	.	.	.	.
d	d	-nes	d	-nes	.	.	.	.	.	.
=||	=||	=||	=||	=||	=||	=||	=||	=||	=||	=||
*M2/2	*M2/2	*	*M2/2	*	*M2/2	*	*M2/2	*	*M2/2	*
1D	1D	Qui-	1d	Qui-	2d	Qui-	1f#	Quia	2dd	Quia
.	.	.	.	.	[2f#	-a	.	.	[2a	.
=	=	=	=	=	=	=	=	=	=	=
1F#	1F#	.	1d	-a	2f#]	.	1a	.	2a]	.
.	.	.	.	.	2a	dis-	.	.	2a	dis-
=	=	=	=	=	=	=	=	=	=	=
1G	1G	-di-	1B	di-	[1g	-ci-	1d	dis-	2.b	-ci-
.	.	.	.	.	.	.	.	.	4b	-pu-
=	=	=	=	=	=	=	=	=	=	=
1D	1D	-sci-	1d	-sci-	2g]	.	2.d	-ci-	1a	-li
.	.	.	.	.	2f#	-pu-	.	.	.	.
.	.	.	.	.	.	.	4d	-pu-	.	.
=	=	=	=	=	=	=	=	=	=	=
2.E	1E	-pu-	1c	-pu-	2e	-li	1g	-li	2cc	me-
.	.	.	.	.	2g	me-	.	.	[2b	-i
4E	.	.	.	.	.	.	.	.	.	.
=	=	=	=	=	=	=	=	=	=	=
1F#	1F#	-li	1A	-li	4f#	.	2r	.	2b]	.
.	.	.	.	.	4e	.	.	.	.	.
.	.	.	.	.	4d	.	2b	me-	2dd	es-
.	.	.	.	.	4c	.	.	.	.	.
=	=	=	=	=	=	=	=	=	=	=
1G	1G	me-	[1B	me-	4B	.	4b	-i	4dd	.
.	.	.	.	.	4G	-i-	4a	.	4cc	.
.	.	.	.	.	[2g	-es-	2g	es-	4b	.
.	.	.	.	.	.	.	.	.	4cc	.
=	=	=	=	=	=	=	=	=	=	=
1D	1D	.	1A	.	2g]	.	1a	-tis	4dd	.
.	.	.	.	.	.	.	.	.	4cc	.
.	.	.	.	.	2f#	.	.	.	4a	.
.	.	.	.	.	.	.	.	.	4b	.
=	=	=	=	=	=	=	=	=	=	=
1E	1E	-i	[1G	-i	1g	-tis	2r	.	4cc	.
.	.	.	.	.	.	.	.	.	4a	.
.	.	.	.	.	.	.	2g	Si	4b	.
.	.	.	.	.	.	.	.	.	4cc	.
=	=	=	=	=	=	=	=	=	=	=
1D	1D	e-	1F#	.	2r	.	2dd	di-	2.dd	.
.	.	.	.	.	2a	Si	[2dd	-lec-	.	.
.	.	.	.	.	.	.	.	.	4cc	.
=	=	=	=	=	=	=	=	=	=	=
1GG	1GG	-stis	1G	e-	2b	di-	2dd]	.	2.b	.
.	.	.	.	.	[2g	-lec-	2b	-ti-	.	.
.	.	.	.	.	.	.	.	.	4a	.
=	=	=	=	=	=	=	=	=	=	=
2r	2r	.	1G	-stis	2g]	.	1dd	-o-	1g	.
2GG	2G	si	.	.	2g	-ti-	.	.	.	.
=	=	=	=	=	=	=	=	=	=	=
2C	2C	di-	1G	si	2e	-o-	1ee	-nem	1g	-tis
[2C	[2C	-le-	.	.	2c	-nem	.	.	.	.
=	=	=	=	=	=	=	=	=	=	=
2C]	2C]	.	1F	di-	1d	ha-	[1dd	ha-	2r	.
2BB	2BB	-cti-	.	.	.	.	.	.	2g	Si
=	=	=	=	=	=	=	=	=	=	=
1C	1C	-o-	1E	-le-	1G	-bu-	2dd]	.	2cc	di-
.	.	.	.	.	.	.	2cc	-bu-	[2cc	-lec-
=	=	=	=	=	=	=	=	=	=	=
1GG	1GG	-nem	1D	-cti-	2.g	-e-	1dd	-e-	2cc]	.
.	.	.	.	.	.	.	.	.	2b	-ti-
.	.	.	.	.	4g	-ri-	.	.	.	.
=	=	=	=	=	=	=	=	=	=	=
[1C	[1C	ha-	1E	-o-	1c	-tis	1cc	-ri-	2cc	-o-
.	.	.	.	.	.	.	.	.	2g	-nem
=	=	=	=	=	=	=	=	=	=	=
2C]	2C]	.	1C	-nem	2g	Si	1cc	-tis	[1cc	ha-
2AA	2AA	-bu-	.	.	2a	di-	.	.	.	.
=	=	=	=	=	=	=	=	=	=	=
[1AA	[1AA	-e-	[1E	ha-	2a	-lec-	1r	.	2cc]	.
.	.	.	.	.	2e	-ti-	.	.	2a	-bu-
=	=	=	=	=	=	=	=	=	=	=
2AA]	2AA]	.	2E]	-bu-	2e	-o-	1a	ad	2.cc	-e-
2AA	2AA	-ri-	2F#	-e-	2c	-nem	.	.	.	.
.	.	.	.	.	.	.	.	.	4cc	-ri-
=	=	=	=	=	=	=	=	=	=	=
1GG	1GG	-tis	[1G	.	2.g	ha-	4dd	.	2b	-tis
.	.	.	.	.	.	.	4cc	.	.	.
.	.	.	.	.	.	.	4b	.	2d	ad
.	.	.	.	.	4f	.	4a	.	.	.
=	=	=	=	=	=	=	=	=	=	=
2.C	2.C	ad	2G]	.	4e	.	2.g	.	2.e	.
.	.	.	.	.	4f	.	.	.	.	.
.	.	.	2G	-ri-	4e	.	.	.	.	.
4D	4D	.	.	.	4d	.	4f	.	4f	.
=	=	=	=	=	=	=	=	=	=	=
4E	4E	.	1G	-tis	2c	.	2e	.	4g	.
4F	4F	.	.	.	.	.	.	.	4a	.
[2G	[2G	.	.	.	4B	.	[2d	.	4b	.
.	.	.	.	.	4A	.	.	.	4cc	.
=	=	=	=	=	=	=	=	=	=	=
2G]	2G]	.	[1A	ad	4B	.	4d]	.	4dd	.
.	.	.	.	.	4c	.	4e	.	8ccL	.
.	.	.	.	.	.	.	.	.	8bJ	.
2F	2F	.	.	.	2d	-bu-	4f	.	[2a	.
.	.	.	.	.	.	.	8eL	.	.	.
.	.	.	.	.	.	.	8fJ	.	.	.
=	=	=	=	=	=	=	=	=	=	=
2.E	2.E	.	1B	.	2.e	-e-	[1g	in-	4a]	.
.	.	.	.	.	.	.	.	.	8gL	.
.	.	.	.	.	.	.	.	.	8f#J	.
.	.	.	.	.	.	.	.	.	2g	.
4D	4D	.	.	.	4e	-ri-	.	.	.	.
=	=	=	=	=	=	=	=	=	=	=
2C	2C	in-	1A	in-	2e	-tis	2g]	.	1a	in-
2D	2D	-vi-	.	.	2d	ad	2f#	-vi-	.	.
=	=	=	=	=	=	=	=	=	=	=
1GG	1GG	-cem	[1G	.	2.d	in-	1g	-cem	1b	.
.	.	.	.	.	4d	-vi-	.	.	.	.
=	=	=	=	=	=	=	=	=	=	=
2r	2r	.	1F#	.	1d	-cem	1a	.	2.a	.
2D	2D	di-	.	.	.	.	.	.	.	.
.	.	.	.	.	.	.	.	.	4a	-vi-
=	=	=	=	=	=	=	=	=	=	=
2E	2E	-xit	1G	-vi-	2r	.	1r	.	1g	-cem
2C	2C	Je-	.	.	2c	di-	.	.	.	.
=	=	=	=	=	=	=	=	=	=	=
2C	2C	-sus	1G	-cem	2e	-xit	2r	.	1r	.
2BB	2BB	di-	.	.	2g	Je-	2dd	di-	.	.
=	=	=	=	=	=	=	=	=	=	=
2.C	2.C	-sci-	1G	di-	2g	-sus	2ee	-xit	2r	.
.	.	.	.	.	2e	dis-	2cc	Je-	2cc	di-
4C	4C	-pu-	.	.	.	.	.	.	.	.
=	=	=	=	=	=	=	=	=	=	=
1GG	1GG	-lis	1G	-xit	2.g	-ci-	2cc	-sus	1dd	-xit
.	.	.	.	.	.	.	2b	dis-	.	.
.	.	.	.	.	4f	-pu-	.	.	.	.
=	=	=	=	=	=	=	=	=	=	=
2r	2r	.	[2c	Je-	2e	-lis	2.cc	-ci-	2ee	Je-
2G	2G	di-	2G	.	2g	dis-	.	.	2dd	-sus
.	.	.	.	.	.	.	4b	-pu-	.	.
=	=	=	=	=	=	=	=	=	=	=
2A	2A	-xit	1c	.	2e	-ci-	2.a	-lis	2.cc	dis-
2F	2F	Je-	.	.	2f	-pu-	.	.	.	.
.	.	.	.	.	.	.	4g	.	4b	.
=	=	=	=	=	=	=	=	=	=	=
2F	2F	-sus	1c	-sus	4c	-lis	2f	Su-	4a	-ci-
.	.	.	.	.	4d	.	.	.	8gL	.
.	.	.	.	.	.	.	.	.	8fJ	.
2E	2E	di-	.	.	2e	Su-	2g	.	[2g	.
=	=	=	=	=	=	=	=	=	=	=
2.F	2.F	-sci-	1A	di-	2.c	.	2.a	.	4g]	.
.	.	.	.	.	.	.	.	.	4f	-pu-
.	.	.	.	.	.	.	.	.	[2f	-lis
4F	4F	-pu-	.	.	4d	.	4b	.	.	.
=	=	=	=	=	=	=	=	=	=	=
2C	2C	-lis	1G	-sci-	4e	.	1cc	.	2f]	.
.	.	.	.	.	4f	.	.	.	.	.
2C	2C	di-	.	.	[2g	.	.	.	4e	Su-
.	.	.	.	.	.	.	.	.	4d	.
=	=	=	=	=	=	=	=	=	=	=
2.C	2.C	-sci-	1G	-pu-	4g]	.	2cc	-is	4e	.
.	.	.	.	.	4f	.	.	.	4f	.
.	.	.	.	.	4e	.	2cc	dis-	4g	.
4C	4C	-pu-	.	.	4f	.	.	.	4a	.
=	=	=	=	=	=	=	=	=	=	=
1BB	1BB	-lis	1G	-lis	2d	-is	4dd	-ci-	4b	.
.	.	.	.	.	.	.	4cc	.	4cc	.
.	.	.	.	.	4g	Su-	4b	-pu-	4dd	.
.	.	.	.	.	4f	.	4a	.	8ccL	.
.	.	.	.	.	.	.	.	.	8ddJ	.
=	=	=	=	=	=	=	=	=	=	=
[1C	[1C	su-	1G	su-	2.e	.	2g	-lis	4ee	.
.	.	.	.	.	.	.	.	.	4dd	.
.	.	.	.	.	.	.	4a	Su-	4cc	.
.	.	.	.	.	4d	.	4b	.	4dd	.
=	=	=	=	=	=	=	=	=	=	=
1C]	1C]	.	[1G	-is	4c	.	4cc	.	4ee	.
.	.	.	.	.	4B	.	4dd	.	4ff	.
.	.	.	.	.	4c	.	[2cc	.	[2ee	.
.	.	.	.	.	4d	.	.	.	.	.
=	=	=	=	=	=	=	=	=	=	=
[1GG	[1G	-is	1G_	.	4e	.	2cc]	.	2ee]	.
.	.	.	.	.	4f	.	.	.	.	.
.	.	.	.	.	4g	.	4b	.	4dd	.
.	.	.	.	.	4a	.	4a	.	4cc	.
=	=	=	=	=	=	=	=	=	=	=
1GG_	1G_	.	1G_	.	1g	.	[1b	-is	[1dd	-is.
=	=	=	=	=	=	=	=	=	=	=
1GG_	1G_	.	1G_	.	[1g	-is.	1b_	.	1dd_	.
=	=	=	=	=	=	=	=	=	=	=
1GG]	1G]	.	1G]	.	1g]	.	1b]	.	1dd]	.
=	=	=	=	=	=	=	=	=	=	=
2.G	1r	.	2.G	Ti-	2.B	Ti-	[1g	Ti-	1r	.
4A	.	.	4A	-me-	4c	-me-	.	.	.	.
=	=	=	=	=	=	=	=	=	=	=
2B	1r	.	2B	-a-	2d	-a-	2g]	.	1r	.
2c	.	.	2c	-mus	2e	-mus	2g	-me-	.	.
=	=	=	=	=	=	=	=	=	=	=
2.A	1r	.	2.A	et	2.c	et	[1cc	-a-	1r	.
4G	.	.	4G	a-	4d	a-	.	.	.	.
=	=	=	=	=	=	=	=	=	=	=
2F	1r	.	2F	-me-	4e	-me-	2cc]	.	1r	.
.	.	.	.	.	4f	.	.	.	.	.
2E	.	.	2E	-mus	2g	-mus	2b	-mus	.	.
=	=	=	=	=	=	=	=	=	=	=
[1F	1r	.	[1F	De-	2f	De-	2a	et	1r	.
.	.	.	.	.	4e	.	2f	a-	.	.
.	.	.	.	.	4d	.	.	.	.	.
=	=	=	=	=	=	=	=	=	=	=
2F]	1r	.	2F]	.	2c	.	4a	-me-	1r	.
.	.	.	.	.	.	.	4b	.	.	.
2A	.	.	2A	.	2f	-um	4cc	-mus	.	.
.	.	.	.	.	.	.	4a	.	.	.
=	=	=	=	=	=	=	=	=	=	=
2G	1r	.	2G	.	4d	Vi-	2b	De-	1r	.
.	.	.	.	.	4e	.	.	.	.	.
2F	.	.	2F	-um	4f	.	[2cc	-um	.	.
.	.	.	.	.	4e	.	.	.	.	.
=	=	=	=	=	=	=	=	=	=	=
1G	1r	.	1G	vi-	1d	.	2cc]	.	1r	.
.	.	.	.	.	.	.	2b	Vi-	.	.
=	=	=	=	=	=	=	=	=	=	=
1C	1r	.	1C	-vum	1e	-vum	1cc	-vum	2r	.
.	.	.	.	.	.	.	.	.	[2g	Et
=	=	=	=	=	=	=	=	=	=	=
[1C	[1C	Et	1c	et	2r	.	[1g	et	2g]	.
.	.	.	.	.	[2e	et	.	.	2cc	ex
=	=	=	=	=	=	=	=	=	=	=
2C]	2C]	.	1c	ex	2e]	.	2g]	.	2cc	cor-
2F	2F	ex	.	.	2a	ex	2a	ex	[2a	-de
=	=	=	=	=	=	=	=	=	=	=
1D	1D	cor-	1A	cor-	1f	cor-	1a	cor-	2a]	.
.	.	.	.	.	.	.	.	.	[2dd	di-
=	=	=	=	=	=	=	=	=	=	=
1G	1G	-de	1G	-de	1g	-de	1b	-de	2dd]	.
.	.	.	.	.	.	.	.	.	2b	-li-
=	=	=	=	=	=	=	=	=	=	=
2G	2G	di-	1G	di-	1g	di-	2b	di-	2dd	-ga-
2E	2E	-li-	.	.	.	.	2cc	-li-	2ee	-mus
=	=	=	=	=	=	=	=	=	=	=
1F	1F	-ga-	1F	-li-	2a	-li-	4a	-ga-	[1cc	nos
.	.	.	.	.	.	.	4g	.	.	.
.	.	.	.	.	[2f	-ga-	4a	.	.	.
.	.	.	.	.	.	.	4b	.	.	.
=	=	=	=	=	=	=	=	=	=	=
1C	1C	-mus	1G	-ga-	2f]	.	4cc	.	2cc]	.
.	.	.	.	.	.	.	4dd	.	.	.
.	.	.	.	.	2e	-mus	2ee	.	2cc	sin-
=	=	=	=	=	=	=	=	=	=	=
1D	[1D	nos	1F	-mus	1f	nos	2.dd	.	2a	-ce-
.	.	.	.	.	.	.	.	.	[2b	.
.	.	.	.	.	.	.	4cc	-mus	.	.
=	=	=	=	=	=	=	=	=	=	=
1E	1E	.	[1E	nos	2g	Sin-	4b	nos	2b]	.
.	.	.	.	.	.	.	4a	.	.	.
.	.	.	.	.	4f	-ce-	2g	.	2cc	.
.	.	.	.	.	4e	.	.	.	.	.
=	=	=	=	=	=	=	=	=	=	=
2D	2D	sin-	1A	.	2f	-ro	4a	sin-	2dd	.
.	.	.	.	.	.	.	4b	.	.	.
2C	2C	.	.	.	2e	sin-	4cc	.	2ee	.
.	.	.	.	.	.	.	4b	.	.	.
=	=	=	=	=	=	=	=	=	=	=
[1D	[1D	-ce-	1A	sin-	2f#	-ce-	2a	-ce-	2dd	.
.	.	.	.	.	[2g	.	2b	.	4cc	.
.	.	.	.	.	.	.	.	.	4b	.
=	=	=	=	=	=	=	=	=	=	=
2D]	1D]	.	[1A	-ce-	2g]	.	2.dd	.	1a	.
2D	.	.	.	.	2f#	.	.	.	.	.
.	.	.	.	.	.	.	4cc#	.	.	.
=	=	=	=	=	=	=	=	=	=	=
[1GG	[1GG	-ro	1G	.	[1g	-ro.	[1dd	-ro	[1b	-ro.
=	=	=	=	=	=	=	=	=	=	=
1GG_	1GG_	.	[1G	-ro	1g_	.	1dd_	.	1b_	.
=	=	=	=	=	=	=	=	=	=	=
1GG]	1GG]	.	1G]	.	1g]	.	1dd]	.	1b]	.
=	=	=	=	=	=	=	=	=	=	=
[1G	[1G	Ne	[1G	Ne	2r	.	2dd	Ne	1b	Ne
.	.	.	.	.	[2g	Ne	2b	nos	.	.
=	=	=	=	=	=	=	=	=	=	=
2G]	2G]	.	1G]	.	2g]	.	2.ee	men-	2g	nos
2C	2C	nos	.	.	2e	nos	.	.	[2cc	men-
.	.	.	.	.	.	.	4dd	.	.	.
=	=	=	=	=	=	=	=	=	=	=
2.F	[2.F	men-	1A	nos	2.c	men-	1cc	.	4cc]	.
.	.	.	.	.	.	.	.	.	4b	.
.	.	.	.	.	.	.	.	.	4a	.
4E	4E	.	.	.	8dL	.	.	.	4g	.
.	.	.	.	.	8eJ	.	.	.	.	.
=	=	=	=	=	=	=	=	=	=	=
1D	1D	.	1B	men-	2f	.	1dd	-te	[1f	.
.	.	.	.	.	2d	-te	.	.	.	.
=	=	=	=	=	=	=	=	=	=	=
1C	1C	-te	1c	-tedi-	2r	.	2r	.	2f]	.
.	.	.	.	.	2g	di-	2cc	di-	2e	-te
=	=	=	=	=	=	=	=	=	=	=
2r	2r	.	1G	-vi-	2e	-vi-	2cc	-vi-	2g	di-
[2C	[2C	di-	.	.	[2g	-da-	[2ee	-da-	2e	-vi-
=	=	=	=	=	=	=	=	=	=	=
2C]	2C]	.	1c	-da-	2g]	.	4ee]	.	2g	-da-
.	.	.	.	.	.	.	4dd	.	.	.
2AA	2AA	-vi-	.	.	2e	.	4cc	.	[2a	.
.	.	.	.	.	.	.	8bL	.	.	.
.	.	.	.	.	.	.	8ccJ	.	.	.
=	=	=	=	=	=	=	=	=	=	=
2.BB	2.BB	-da-	[1B	.	1d	.	2dd	.	4a]	.
.	.	.	.	.	.	.	.	.	4g	.
.	.	.	.	.	.	.	[2dd	.	[2g	.
4C	4C	.	.	.	.	.	.	.	.	.
=	=	=	=	=	=	=	=	=	=	=
1D	1D	.	1A	.	1d	-mus	2dd]	.	2g]	.
.	.	.	.	.	.	.	2a	.	2f#	.
=	=	=	=	=	=	=	=	=	=	=
1GG	1GG	-mus	1G	-mus	2.d	di-	1b	-mus	2g	-mus
.	.	.	.	.	.	.	.	.	[2dd	ca-
.	.	.	.	.	4c	-vi-	.	.	.	.
=	=	=	=	=	=	=	=	=	=	=
2r	2r	.	[1B	ca-	4B	-da-	1r	.	2dd]	.
.	.	.	.	.	4A	.	.	.	.	.
[2G	[2G	ca-	.	.	2G	-mus	.	.	2ee	-ve-
=	=	=	=	=	=	=	=	=	=	=
2G]	2G]	.	2B]	.	2r	.	2r	.	2dd	-a-
2A	2A	-ve-	2c	-ve-	[2e	Ca-	2ee	ca-	2cc	-mus
=	=	=	=	=	=	=	=	=	=	=
1F	1F	-a-	[1A	-a-	2e]	.	2ff	-ve-	1r	.
.	.	.	.	.	2d	-ve-	[2a	-a-	.	.
=	=	=	=	=	=	=	=	=	=	=
1E	1E	-mus	1B	.	1e	-a-	2a]	.	2r	.
.	.	.	.	.	.	.	2g#	.	[2ee	ca-
=	=	=	=	=	=	=	=	=	=	=
2r	2r	.	1A	-mus	1e	-mus	2a	-mus	4ee]	.
.	.	.	.	.	.	.	.	.	4dd	.
[2A	[2A	ca-	.	.	.	.	4ee	ca-	4cc	.
.	.	.	.	.	.	.	4dd	.	4b	.
=	=	=	=	=	=	=	=	=	=	=
2A]	2A]	.	1c	ca-	2r	.	4cc	.	4a	.
.	.	.	.	.	.	.	4b	.	4b	.
2F	2F	-ve-	.	.	[2a	Ca-	4a	.	4cc	.
.	.	.	.	.	.	.	4b	.	4b	.
=	=	=	=	=	=	=	=	=	=	=
1A	[1A	-a-	1c	-ve-	2a]	.	2cc	.	4a	-ve-
.	.	.	.	.	.	.	.	.	4b	-a-
.	.	.	.	.	2f#	-ve-	2a	-ve-	[2cc	.
=	=	=	=	=	=	=	=	=	=	=
1G	1G	.	1d	-a-	2.g	-a-	2dd	-a-	2cc]	.
.	.	.	.	.	.	.	2g	.	2b	.
.	.	.	.	.	4f	.	.	.	.	.
=	=	=	=	=	=	=	=	=	=	=
1C	1C	-mus	1c	-mus	1e	-mus	1g	-mus	2cc	-mus
.	.	.	.	.	.	.	.	.	2ee	Ces-
=	=	=	=	=	=	=	=	=	=	=
2r	2r	.	1c	ces-	2r	.	2r	.	1cc	-sent
2F	2F	ces-	.	.	2a	Ces-	2cc	Ces-	.	.
=	=	=	=	=	=	=	=	=	=	=
1D	1D	-sent	1A	-sent	1f	-sent	1ff	-sent	2.dd	sur-
.	.	.	.	.	.	.	.	.	4cc	-gi-
=	=	=	=	=	=	=	=	=	=	=
2.E	2.E	sur-	[1G	sur-	2.g	Sur-	2r	.	2b	-a
.	.	.	.	.	.	.	[2ee	Sur-	2g	ma-
4D	4D	-gi-	.	.	4f	-gi-	.	.	.	.
=	=	=	=	=	=	=	=	=	=	=
2C	2C	-a	2G]	.	[1e	-a	4ee]	.	2cc	-lig-
.	.	.	.	.	.	.	4ee	-gi-	.	.
2GG	2G	ma-	2G	-gi-	.	.	[2dd	-a	[2b	.
=	=	=	=	=	=	=	=	=	=	=
[1AA	[1A	-li-	2E	-a	2e]	.	2dd]	.	2b]	.
.	.	.	2E	ma-	2e	ma-	2cc	ma-	2a	-na
=	=	=	=	=	=	=	=	=	=	=
1AA]	1A]	.	1A	-li-	[1e	-lig-	1cc	-li-	2a	ma-
.	.	.	.	.	.	.	.	.	[2a	-lig-
=	=	=	=	=	=	=	=	=	=	=
1E	1E	-gna	1B	-gna	1e]	.	2b	-gna	2a]	.
.	.	.	.	.	.	.	[2ee	ces-	2g#	-na
=	=	=	=	=	=	=	=	=	=	=
1A	1A	ces-	1A	ces-	1e	-na	2ee]	.	2r	.
.	.	.	.	.	.	.	2cc	.	[2cc	ces-
=	=	=	=	=	=	=	=	=	=	=
1G	1G	-sent	1d	-sant	2g	Ces-	4dd	-sent	2cc]	.
.	.	.	.	.	.	.	4ee	.	.	.
.	.	.	.	.	2f	-sent	[2dd	li-	2b	-sent
=	=	=	=	=	=	=	=	=	=	=
1A	1A	li-	1A	li-	1e	li-	2dd]	.	1a	li-
.	.	.	.	.	.	.	2cc#	.	.	.
=	=	=	=	=	=	=	=	=	=	=
1D	1D	-tes	1A	-tes	1f#	-tes	1dd	-tes	1a	-tes
=	=	=	=	=	=	=	=	=	=	=
2r	2r	.	2r	.	2r	.	2r	.	2r	.
[2G	[2G	et	[2d	et	[2g	et	[2b	et	[2dd	et
=	=	=	=	=	=	=	=	=	=	=
2G]	2G]	.	2d]	.	2g]	.	2b]	.	2dd]	.
2C	2C	in	2c	in	2e	in	2cc	in	2ee	in
=	=	=	=	=	=	=	=	=	=	=
2.F	2.F	me-	2.c	me-	4c	me-	4a	me-	2.ff	me-
.	.	.	.	.	4B	.	4g	.	.	.
.	.	.	.	.	4c	.	4a	.	.	.
4F	4F	-di-	4c	-di-	4d	.	4b	.	4ff	-di-
=	=	=	=	=	=	=	=	=	=	=
1C	1C	-o	2c	-o	4e	.	4cc	.	1ee	-o
.	.	.	.	.	4f#	.	4dd	.	.	.
.	.	.	2e	no-	[2g	.	4cc	.	.	.
.	.	.	.	.	.	.	4b	.	.	.
=	=	=	=	=	=	=	=	=	=	=
1D	1D	no-	1A	-stri	4g]	.	2.a	.	2.dd	nos-
.	.	.	.	.	4g	-di-	.	.	.	.
.	.	.	.	.	2f#	-o	.	.	.	.
.	.	.	.	.	.	.	4a	-di-	4cc	.
=	=	=	=	=	=	=	=	=	=	=
1GG	1GG	-stri	2r	.	1g	nos-	2g	-o	4b	.
.	.	.	.	.	.	.	.	.	4a	.
.	.	.	2d	sit	.	.	2g	nos-	2b	.
=	=	=	=	=	=	=	=	=	=	=
[1C	[1C	sit	4e	Chri-	2e	-tri	2e	-tri	1g	-tri
.	.	.	4d	.	.	.	.	.	.	.
.	.	.	4c	.	2g	sit	2ee	sit	.	.
.	.	.	4d	.	.	.	.	.	.	.
=	=	=	=	=	=	=	=	=	=	=
1C]	1C]	.	4e	.	2.e	Chri-	2gg	Chri-	2r	.
.	.	.	4d	.	.	.	.	.	.	.
.	.	.	[2c	.	.	.	2cc	-stus	2ee	sit
.	.	.	.	.	8fL	.	.	.	.	.
.	.	.	.	.	8gJ	.	.	.	.	.
=	=	=	=	=	=	=	=	=	=	=
1F	1F	Chri-	4c]	.	1a	-stus	4a	De-	2ff	Chri-
.	.	.	4B	.	.	.	4g	.	.	.
.	.	.	4A	.	.	.	4a	.	2dd	-stus
.	.	.	4B	.	.	.	4b	.	.	.
=	=	=	=	=	=	=	=	=	=	=
1C	1C	-stus	1c	.	2r	.	4cc	.	4ee	De-
.	.	.	.	.	.	.	4b	.	4dd	.
.	.	.	.	.	2A	Chris-	4a	.	4cc	.
.	.	.	.	.	.	.	4g	.	4b	.
=	=	=	=	=	=	=	=	=	=	=
1D	[1D	De-	2B	-stus	1d	.	4f	.	4a	.
.	.	.	.	.	.	.	4e	.	4g	.
.	.	.	2r	.	.	.	[2f	.	4a	.
.	.	.	.	.	.	.	.	.	4b	.
=	=	=	=	=	=	=	=	=	=	=
1C	1C	.	1A	sit	2A	-tus	2f]	.	4cc	.
.	.	.	.	.	.	.	.	.	4dd	.
.	.	.	.	.	4c	De-	2e	-us	[2cc	.
.	.	.	.	.	4B	.	.	.	.	.
=	=	=	=	=	=	=	=	=	=	=
[1D	[1D	.	2A	Chri-	2A	.	2f#	De-	2cc]	.
.	.	.	4B	.	2G	.	[2g	.	2b	.
.	.	.	4c	.	.	.	.	.	.	.
=	=	=	=	=	=	=	=	=	=	=
1D]	1D]	.	2.d	.	[1d	-us.	2g]	.	1a	.
.	.	.	.	.	.	.	2f#	.	.	.
.	.	.	4c	.	.	.	.	.	.	.
=	=	=	=	=	=	=	=	=	=	=
[1GG	[1GG	-us	[1B	-stus	1d_	.	[1g	-us	[1b	-us.
=	=	=	=	=	=	=	=	=	=	=
1GG]	1GG]	.	1B]	.	1d]	.	1g]	.	1b]	.
=	=	=	=	=	=	=	=	=	=	=
[1G	1r	.	[1G	U-	[1d	U-	1r	.	[1b	U-
=	=	=	=	=	=	=	=	=	=	=
1G]	1r	.	1G]	.	2d]	.	1r	.	1b]	.
.	.	.	.	.	2g	-bi	.	.	.	.
=	=	=	=	=	=	=	=	=	=	=
[1C	[1C	U-	[1c	-bi	[1g	Ca-	2r	.	[1cc	-bi
.	.	.	.	.	.	.	[2g	U-	.	.
=	=	=	=	=	=	=	=	=	=	=
1C]	1C]	.	1c]	.	2g]	.	2g]	.	1cc]	.
.	.	.	.	.	2g	-ri-	2cc	-bi	.	.
=	=	=	=	=	=	=	=	=	=	=
1F	1F	-bi	[1c	ca-	[1f	-tas	[1cc	Ca-	[1a	Ca-
=	=	=	=	=	=	=	=	=	=	=
[1F	[1F	ca-	2c]	.	2f]	.	2cc]	.	2a]	.
.	.	.	2c	-ri-	2c	et	2cc	-ri-	2a	-ri-
=	=	=	=	=	=	=	=	=	=	=
2F]	2F]	.	[1c	-tas	2.f	a-	2cc	-tas	[1a	-tas
2F	2F	-ri-	.	.	.	.	2a	et	.	.
.	.	.	.	.	4g	.	.	.	.	.
=	=	=	=	=	=	=	=	=	=	=
[1F	[1F	-tas	1c]	.	4a	.	1cc	A-	1a_	.
.	.	.	.	.	4g	.	.	.	.	.
.	.	.	.	.	4f	.	.	.	.	.
.	.	.	.	.	4e	.	.	.	.	.
=	=	=	=	=	=	=	=	=	=	=
1F]	1F]	.	[1A	et	2f	.	1cc	-mor	1a_	.
.	.	.	.	.	[2c	.	.	.	.	.
=	=	=	=	=	=	=	=	=	=	=
2F	2F	u-	1A]	.	2c]	.	2r	.	1a]	.
2D	2D	-bi	.	.	2d	.	2f	et	.	.
=	=	=	=	=	=	=	=	=	=	=
2E	2E	ca-	[1c	a-	[1c	-mor	2g	a-	1r	.
[2F	[2F	.	.	.	.	.	[2a	.	.	.
=	=	=	=	=	=	=	=	=	=	=
2F]	2F]	.	1c]	.	1c]	.	4a]	.	1r	.
.	.	.	.	.	.	.	4g	.	.	.
2C	2C	.	.	.	.	.	4f	.	.	.
.	.	.	.	.	.	.	4e	.	.	.
=	=	=	=	=	=	=	=	=	=	=
1D	[1D	.	[1B	-mor	1r	.	2f#	.	2r	.
.	.	.	.	.	.	.	[2g	.	2b	et
=	=	=	=	=	=	=	=	=	=	=
2D	2D]	.	1A	.	1r	.	2g]	.	2.dd	a-
2D	2D	-ri-	.	.	.	.	2f#	.	.	.
.	.	.	.	.	.	.	.	.	4cc	.
=	=	=	=	=	=	=	=	=	=	=
1GG	1GG	-tas	[1G	De-	2d	et	[1g	-mor	4b	.
.	.	.	.	.	.	.	.	.	4a	.
.	.	.	.	.	[2g	a-	.	.	[2b	.
=	=	=	=	=	=	=	=	=	=	=
2r	2r	.	1G]	.	2g]	.	1g]	.	4b]	.
.	.	.	.	.	.	.	.	.	4a	.
[2C	[2C	et	.	.	[2e	.	.	.	4g	.
.	.	.	.	.	.	.	.	.	4f#	.
=	=	=	=	=	=	=	=	=	=	=
2C]	2C]	.	[1A	-us	4e]	.	2r	.	[1e	.
.	.	.	.	.	4d	.	.	.	.	.
[2AA	[2AA	a-	.	.	[2c	.	[2cc	et	.	.
=	=	=	=	=	=	=	=	=	=	=
2AA]	2AA]	.	1A]	.	4c]	.	2cc]	.	2e]	.
.	.	.	.	.	4B	.	.	.	.	.
2D	2D	.	.	.	2A	.	[2dd	a-	2f#	.
=	=	=	=	=	=	=	=	=	=	=
1GG	1GG	-mor	[1B	i-	2G	-mor	2dd]	.	[1g	-mor
.	.	.	.	.	2g	De-	[2b	-mor	.	.
=	=	=	=	=	=	=	=	=	=	=
2r	2r	.	1B]	.	2d	-us	2b]	.	1g]	.
2E	2E	De-	.	.	[2e	i-	2b	De-	.	.
=	=	=	=	=	=	=	=	=	=	=
2C	2C	-us	[1A	-bi	2e]	.	2cc	-us	2r	.
[2D	[2D	i-	.	.	2d	-bi	2a	De-	2dd	De-
=	=	=	=	=	=	=	=	=	=	=
2D]	2D]	.	1A]	.	1d	est	2.dd	.	2a	-us
2D	2D	-bi	.	.	.	.	.	.	[2dd	De-
.	.	.	.	.	.	.	4cc	.	.	.
=	=	=	=	=	=	=	=	=	=	=
1GG	1GG	est	[1G	est	2r	.	4b	.	4dd]	.
.	.	.	.	.	.	.	4a	.	4cc	.
.	.	.	.	.	2g	De-	4g	.	4b	.
.	.	.	.	.	.	.	4f#	.	4a	.
=	=	=	=	=	=	=	=	=	=	=
2r	2r	.	1G_	.	1d	-us	4g	.	2b	.
.	.	.	.	.	.	.	4a	.	.	.
[2G	[2GG	De-	.	.	.	.	4b	.	4g	.
.	.	.	.	.	.	.	4cc	.	4a	.
=	=	=	=	=	=	=	=	=	=	=
2G]	2GG]	.	1G_	.	2.g	i-	4dd	.	4b	.
.	.	.	.	.	.	.	4cc	.	4cc	.
2BB	2BB	-us	.	.	.	.	4b	-us	4dd	-us
.	.	.	.	.	4f	.	4dd	.	4b	.
=	=	=	=	=	=	=	=	=	=	=
2.C	2.C	i-	1G_	.	2.e	.	2.cc	i-	2.ee	i-
4C	4C	-bi	.	.	4f#	-bi	4cc	-bi	4ee	-bi
=	=	=	=	=	=	=	=	=	=	=
[1GG	[1GG	est.	1G_	.	[1g	est.	[1b	est.	[1dd	est.
=	=	=	=	=	=	=	=	=	=	=
1GG]	1GG]	.	1G]	.	1g]	.	1b]	.	1dd]	.
==	==	==	==	==	==	==	==	==	==	==
*-	*-	*-	*-	*-	*-	*-	*-	*-	*-	*-
!!!RDF**kern: > = above
!!!RDF**kern: < = below
!!!OTL: Mandatum novum do vobis
!!!COM: Leszczyński, Władysław
!!!CDT: 1618/1680-09-24
!!!TXO: Latin
!!!ODT: 
!!!ARL: Archiwum OO. Paulinów na Jasnej Górze
!!!voices:	6
!!title: @{OTL}, ed. @{ENC}
!!!pag:
!!!GTL: 
!!!EFL: 
!!!YEM: Creative Commons CC/BY/NC/SA 4.0
!!!ENC: Marcin Konik
!!!END: 2015-03-14
!!!EED: Marcin Konik
!!!EEV: 
!!!ONB: Encoded in vim by Marcin Konik
!!!CharacterEncoding: utf-8
!!!RDF**kern: l=long note in original notation
!!!RDF**kern: i=editorial accidental
!!muse2ps: z14jc180F
